X: 1
T: Humours Of Salt Lake, The
M: 6/8
L: 1/8
R: jig
K: Dmaj
A3/2D/D DEF |G3/2F/G dcB |A3/2D/D FEF |GdF E3/2F/G |
A3/2D/D DEF |G3/2F/G dcB |AdF EDE |F3/2A/d B3/2G/e |
f3/2A/A AdA |B/c/df ede |f3/2A/A AdA |G/A/Bc/d/ ceA |
f3/2A/A AdA |B/c/df ede |f3/2g/a bag |1 fad e3/2G/G :|2 f3/2e/d c2 B ||
|: AdA FdA |BdG EFG |Aec A3/2G/F |GAE AdA |
FdA GdG |EFG A3/2B/c |def g3/2f/e |dcB A3/2G/E |
Fd/d/d AdA |GdG EFG |Aec A3/2G/F |GAG Fd/d/d |
AdA GdG |EFG A3/2B/c |daf g3/2f/e ||1 d3/2c/B A3/2F/G :|2 d3/2B/c d3 ||
